client/src/img/GoogleIcon.svg

<svg width="48" height="48" viewBox="0 0 48 48" fill="none" xmlns="http://www.w3.org/2000/svg">
<path d="M0 24C0 10.7452 10.7452 0 24 0C37.2548 0 48 10.7452 48 24C48 37.2548 37.2548 48 24 48C10.7452 48 0 37.2548 0 24Z" fill="white"/>
<path d="M24.0001 17.6214C25.953 17.6214 27.2704 18.465 28.0215 19.1699L30.9566 16.3041C29.1539 14.6285 26.8081 13.6001 24.0001 13.6001C19.9326 13.6001 16.4197 15.9343 14.7095 19.3317L18.0721 21.9432C18.9157 19.4357 21.2499 17.6214 24.0001 17.6214Z" fill="#EA4335"/>
<path d="M33.984 24.2312C33.984 23.3761 33.9147 22.7521 33.7644 22.105H24V25.9645H29.7316C29.616 26.9236 28.992 28.3681 27.6053 29.3388L30.8871 31.881C32.8516 30.0668 33.984 27.3974 33.984 24.2312Z" fill="#4285F4"/>
<path d="M18.0837 26.0569C17.8641 25.4098 17.737 24.7164 17.737 24C17.737 23.2835 17.8641 22.5902 18.0721 21.9431L14.7094 19.3315C14.0045 20.7413 13.6001 22.3244 13.6001 24C13.6001 25.6755 14.0045 27.2587 14.7094 28.6684L18.0837 26.0569Z" fill="#FBBC05"/>
<path d="M24.0001 34.4002C26.8081 34.4002 29.1654 33.4758 30.8872 31.8811L27.6054 29.3389C26.7272 29.9514 25.5485 30.3789 24.0001 30.3789C21.2498 30.3789 18.9156 28.5647 18.0836 26.0571L14.7209 28.6687C16.4312 32.066 19.9325 34.4002 24.0001 34.4002Z" fill="#34A853"/>
</svg>

<svg width="48" height="48" fill="none" xmlns="http://www.w3.org/2000/svg"><path d="M0 24C0 10.745 10.745 0 24 0s24 10.745 24 24-10.745 24-24 24S0 37.255 0 24z" fill="#fff"/><path d="M24 17.621c1.953 0 3.27.844 4.021 1.549l2.936-2.866C29.154 14.63 26.808 13.6 24 13.6c-4.067 0-7.58 2.334-9.29 5.732l3.362 2.611c.844-2.507 3.178-4.322 5.928-4.322z" fill="#EA4335"/><path d="M33.984 24.231c0-.855-.07-1.479-.22-2.126H24v3.86h5.732c-.116.959-.74 2.403-2.127 3.374l3.282 2.542c1.965-1.814 3.097-4.484 3.097-7.65z" fill="#4285F4"/><path d="M18.084 26.057A6.401 6.401 0 0117.737 24c0-.716.127-1.41.335-2.057l-3.363-2.612A10.409 10.409 0 0013.6 24c0 1.675.405 3.259 1.11 4.668l3.374-2.611z" fill="#FBBC05"/><path d="M24 34.4c2.808 0 5.165-.924 6.887-2.519l-3.282-2.542c-.878.612-2.056 1.04-3.605 1.04-2.75 0-5.084-1.814-5.916-4.322L14.72 28.67C16.43 32.066 19.933 34.4 24 34.4z" fill="#34A853"/></svg>
